icons/assets/dark/video.svg

<svg width="48" height="48" fill="none" xmlns="http://www.w3.org/2000/svg"><path d="M8 19h7M8 29h7m1-20H8v30h8m0-30h24v30H16m0-30v30M32 9v30m1-20h5.958M33 29h5.958" stroke="#62646A" stroke-width="3.5" stroke-linecap="round" stroke-linejoin="round"/></svg>

<svg width="48" height="48" viewBox="0 0 48 48" fill="none" xmlns="http://www.w3.org/2000/svg">
<path d="M8 19H15M8 29H15M16 9H8V39H16M16 9H40V39H16M16 9V39M32 9V39M33 19H38.9582M33 29H38.9582" stroke="#62646A" stroke-width="3.5" stroke-linecap="round" stroke-linejoin="round"/>
</svg>
